lib/brands/icons/trello.svg

<svg xmlns="http://www.w3.org/2000/svg" fill="none" aria-hidden="true" viewBox="0 0 48 48"><g id="trello-Icon"><g id="Group"><path id="Vector" fill="url(#paint0_linear_94_16796)" d="M38.4844 6H9.51562C7.574 6 6 7.574 6 9.51562V38.4844C6 40.426 7.574 42 9.51562 42H38.4844C40.426 42 42 40.426 42 38.4844V9.51562C42 7.574 40.426 6 38.4844 6Z"/><path id="Vector_2" fill="white" d="M35.6323 10.68H28.0273C27.0954 10.68 26.3398 11.4355 26.3398 12.3675V24.7425C26.3398 25.6745 27.0954 26.43 28.0273 26.43H35.6323C36.5643 26.43 37.3198 25.6745 37.3198 24.7425V12.3675C37.3198 11.4355 36.5643 10.68 35.6323 10.68Z"/><path id="Vector_3" fill="white" d="M19.9727 10.68H12.3677C11.4357 10.68 10.6802 11.4355 10.6802 12.3675V33.7425C10.6802 34.6745 11.4357 35.43 12.3677 35.43H19.9727C20.9047 35.43 21.6602 34.6745 21.6602 33.7425V12.3675C21.6602 11.4355 20.9047 10.68 19.9727 10.68Z"/></g></g><defs><linearGradient id="paint0_linear_94_16796" x1="24" x2="24" y1="6" y2="42" gradientUnits="userSpaceOnUse"><stop stop-color="#0091E6"/><stop offset="1" stop-color="#0079BF"/></linearGradient></defs></svg>

<svg xmlns="http://www.w3.org/2000/svg" fill="none" aria-hidden="true" viewBox="0 0 48 48"><path fill="url(#a)" d="M38.484 6H9.516A3.516 3.516 0 0 0 6 9.516v28.968A3.516 3.516 0 0 0 9.516 42h28.968A3.516 3.516 0 0 0 42 38.484V9.516A3.516 3.516 0 0 0 38.484 6Z"/><path fill="#fff" d="M35.633 10.68h-7.606c-.931 0-1.687.755-1.687 1.688v12.374c0 .932.756 1.688 1.688 1.688h7.605c.931 0 1.687-.756 1.687-1.688V12.367c0-.932-.756-1.687-1.688-1.687Zm-15.66 0h-7.605c-.933 0-1.688.755-1.688 1.688v21.374c0 .933.755 1.688 1.688 1.688h7.604c.932 0 1.688-.755 1.688-1.688V12.369c0-.933-.756-1.688-1.688-1.688Z"/><defs><linearGradient id="a" x1="24" x2="24" y1="6" y2="42" gradientUnits="userSpaceOnUse"><stop stop-color="#0091E6"/><stop offset="1" stop-color="#0079BF"/></linearGradient></defs></svg>
